X: 182
T: Ida Red
B: canberra pickers and fiddlers
B: old time tunes update
B: tunes
M:2/4
L:1/16
Q: 1/4=100
K:A
V:1 
"A"c3c B2B2 | ABAF E2F2 | A2Ac BAF2 | "E"E2F2 "A"A2AB |
"A"c2cc B2B2 | ABAF E2EF | A2Ac BAF2 | "E"E2F2 "A"A3(c ||
"A"c)ee2 [e2e][e2e] | cAB2 A2A2 | BABA cAB2 | "E"EEF2 "A"A2A2 |
"A"cBcd e2e2 | cde2 A2A2 | BABA c2B2 | "E"EFA2 "A"A4 ||
% abcbook-tune_id 67a7d9ec88b1b087dcda59a5
% abcbook-tune_composer_id 
% abcbook-link-0 https://www.youtube.com/watch?v=jtbZ8dp2AIw
% abcbook-link-title-0 Ida Red - Bob Wills &amp; His Texas Playboys
% abcbook-boost 0
% abcbook-difficulty 0
% abcbook-tags old time tunes
% abcbook-tablature 
% abcbook-transpose -2
% abcbook-tuning GDAD
% abcbook-lastupdated 1739172181932
% abcbook-src-url 
% abcbook-soundfonts 
% abcbook-repeats 1
%%MIDI transpose -2


